packages/core/src/svgs/xtm.svg

<svg width="24" height="24" viewBox="0 0 24 24" fill="none" xmlns="http://www.w3.org/2000/svg">
<g clip-path="url(#clip0_31_21042)">
<path d="M0 0H24V24H0V0Z" fill="url(#paint0_linear_31_21042)"/>
<path d="M5.57154 14.3058V8.91433C5.57179 8.68058 5.63578 8.45131 5.7566 8.2512C5.87742 8.05109 6.05051 7.8877 6.25725 7.77862L11.4644 5.04862C11.6615 4.94539 11.882 4.89508 12.1043 4.90259C12.3267 4.9101 12.5433 4.97518 12.733 5.09148L17.8115 8.19005C18.0005 8.30505 18.1565 8.46685 18.2646 8.65979C18.3727 8.85274 18.4292 9.07031 18.4287 9.29148V14.3186C18.4283 14.5285 18.3765 14.7351 18.2779 14.9204C18.1793 15.1056 18.0369 15.2639 17.863 15.3815L12.8187 18.8058C12.6082 18.948 12.3604 19.0247 12.1064 19.0262C11.8524 19.0278 11.6037 18.954 11.3915 18.8143L6.15439 15.3858C5.97492 15.2686 5.82759 15.1084 5.72579 14.9198C5.624 14.7312 5.57097 14.5201 5.57154 14.3058Z" fill="url(#paint1_linear_31_21042)"/>
<path d="M13.7143 18.2141C13.2729 18.5099 12.5572 19.1013 12 19.0713C11.4729 19.0456 10.9286 18.4884 10.5 18.2141C10.5429 18.1499 10.7143 17.9999 10.7143 17.5713V11.9999L9.49288 12.6427C9.12431 12.7841 8.30574 12.9427 7.95002 12.4284C7.51288 11.7856 7.73574 10.9284 8.17288 10.7141C8.43002 10.5856 9.27431 9.99843 9.99859 9.497C10.2686 9.30843 10.5129 9.13272 10.7143 8.99986C10.9329 8.85843 11.5715 8.57129 12 8.57129C12.4286 8.57129 13.0672 8.85843 13.2857 8.99986L15.6429 10.4999C16.0072 10.7141 16.6072 11.357 16.08 12.2141C15.5529 13.0713 14.5372 12.7156 14.1 12.4284L13.2857 11.9999V17.5713C13.2857 17.9999 13.6072 18.1199 13.7143 18.2141Z" fill="white"/>
<path d="M6.0001 14.3145V11.5287C6.0001 11.4719 5.97753 11.4174 5.93734 11.3772C5.89716 11.337 5.84265 11.3145 5.78582 11.3145C5.72899 11.3145 5.67448 11.337 5.6343 11.3772C5.59411 11.4174 5.57153 11.4719 5.57153 11.5287V14.3145C5.57168 14.5281 5.62504 14.7383 5.72681 14.9261C5.82857 15.1139 5.97552 15.2734 6.15439 15.3902L9.74153 17.7473C9.78984 17.778 9.84836 17.7882 9.90422 17.7758C9.96008 17.7633 10.0087 17.7292 10.0394 17.6809C10.0701 17.6326 10.0803 17.5741 10.0679 17.5182C10.0554 17.4623 10.0213 17.4137 9.97296 17.383L6.38582 15.0345C6.2667 14.956 6.16904 14.8491 6.10168 14.7234C6.03433 14.5976 5.99942 14.4571 6.0001 14.3145Z" fill="url(#paint2_linear_31_21042)"/>
<path d="M18.2444 14.1256C18.3012 14.1256 18.3557 14.103 18.3959 14.0629C18.4361 14.0227 18.4586 13.9682 18.4586 13.9113V9.10277C18.4585 8.88233 18.4016 8.66563 18.2935 8.4735C18.1855 8.28137 18.0298 8.12025 17.8415 8.00562L12.7587 4.90277C12.5695 4.78725 12.3537 4.7226 12.1321 4.71509C11.9106 4.70758 11.6909 4.75747 11.4944 4.85991L7.83008 6.7842C7.80177 6.79495 7.77607 6.81158 7.75465 6.83299C7.73324 6.8544 7.71661 6.88011 7.70586 6.90842C7.69511 6.93672 7.69048 6.96699 7.69227 6.99722C7.69407 7.02744 7.70225 7.05695 7.71627 7.08378C7.7303 7.11062 7.74986 7.13417 7.77365 7.1529C7.79745 7.17163 7.82494 7.1851 7.85432 7.19243C7.8837 7.19976 7.9143 7.20078 7.9441 7.19542C7.97391 7.19006 8.00223 7.17844 8.02722 7.16134L11.6915 5.24134C11.8225 5.17236 11.9691 5.13847 12.117 5.14298C12.265 5.14748 12.4093 5.19023 12.5358 5.26705L17.6187 8.36991C17.7438 8.44608 17.8473 8.55304 17.9193 8.68058C17.9913 8.80813 18.0295 8.95201 18.0301 9.09848V13.9113C18.0301 14.0313 18.1244 14.1256 18.2444 14.1256Z" fill="#ED83B3"/>
<path d="M13.3072 5.47738C13.3217 5.45307 13.3409 5.43188 13.3637 5.41504C13.3865 5.3982 13.4123 5.38604 13.4398 5.37927C13.4673 5.37249 13.4959 5.37124 13.5239 5.37557C13.5519 5.3799 13.5787 5.38974 13.6029 5.40452L17.0486 7.51738C17.0919 7.54916 17.1217 7.59605 17.132 7.64874C17.1424 7.70144 17.1326 7.75611 17.1046 7.80192C17.0765 7.84773 17.0323 7.88135 16.9807 7.89612C16.9291 7.91089 16.8738 7.90573 16.8257 7.88166L13.38 5.7688C13.3321 5.73948 13.2976 5.6925 13.284 5.63799C13.2704 5.58348 13.2787 5.5258 13.3072 5.47738Z" fill="#FFD6E9"/>
<path d="M10.2343 9.09878C10.2696 9.13751 10.3179 9.16195 10.37 9.16748C10.4221 9.17301 10.4745 9.15924 10.5171 9.12878L10.7057 9.00021C10.92 8.85878 11.5629 8.57164 11.9914 8.57164C12.42 8.57164 13.0543 8.85878 13.2771 9.00021L15.63 10.5002C15.9943 10.7145 16.5943 11.3574 16.0671 12.2145L16.0286 12.2745C15.9514 12.3902 15.9686 12.5616 16.0929 12.6302C16.1786 12.6731 16.2771 12.6559 16.3329 12.5874L16.4314 12.4374C16.7743 11.8888 16.7614 11.3659 16.5771 10.9416C16.4221 10.6064 16.1697 10.3257 15.8529 10.1359L13.5086 8.63592C13.046 8.36052 12.5276 8.19212 11.9914 8.14307C11.4534 8.19251 10.9334 8.36243 10.47 8.64021L10.4614 8.6445L10.2729 8.77735C10.2471 8.79422 10.2253 8.81642 10.2089 8.84246C10.1926 8.8685 10.182 8.89777 10.1779 8.92826C10.1738 8.95876 10.1764 8.98977 10.1854 9.0192C10.1944 9.04862 10.2096 9.07576 10.23 9.09878H10.2343Z" fill="#FC81B8"/>
<path d="M13.1401 8.67008C13.155 8.64553 13.1746 8.62423 13.1979 8.60743C13.2212 8.59063 13.2476 8.57868 13.2756 8.57228C13.3036 8.56589 13.3325 8.56518 13.3608 8.5702C13.3891 8.57522 13.416 8.58586 13.4401 8.6015L15.1458 9.67722C15.1697 9.69213 15.1905 9.71161 15.2069 9.73454C15.2233 9.75748 15.235 9.78341 15.2413 9.81087C15.2477 9.83833 15.2486 9.86678 15.244 9.89458C15.2394 9.92239 15.2293 9.94901 15.2144 9.97293C15.1995 9.99685 15.18 10.0176 15.1571 10.034C15.1341 10.0504 15.1082 10.0621 15.0807 10.0685C15.0533 10.0748 15.0248 10.0757 14.997 10.0711C14.9692 10.0665 14.9426 10.0564 14.9187 10.0415L13.2044 8.96579C13.1802 8.95056 13.1593 8.93064 13.1429 8.90721C13.1265 8.88377 13.115 8.8573 13.109 8.82934C13.103 8.80138 13.1027 8.77251 13.108 8.74442C13.1134 8.71633 13.1243 8.6896 13.1401 8.66579V8.67008Z" fill="#FDD2E0"/>
</g>
<defs>
<linearGradient id="paint0_linear_31_21042" x1="4.46571" y1="4.16143" x2="29.2071" y2="32.58" gradientUnits="userSpaceOnUse">
<stop stop-color="#1A1E21"/>
<stop offset="1" stop-color="#06060A"/>
</linearGradient>
<linearGradient id="paint1_linear_31_21042" x1="15.1587" y1="6.00005" x2="8.78582" y2="17.4472" gradientUnits="userSpaceOnUse">
<stop stop-color="#F2445B"/>
<stop offset="1" stop-color="#A023B1"/>
</linearGradient>
<linearGradient id="paint2_linear_31_21042" x1="5.14296" y1="12.2745" x2="10.063" y2="17.2116" gradientUnits="userSpaceOnUse">
<stop stop-color="#7A1981"/>
<stop offset="0.63" stop-color="#BD27C1"/>
<stop offset="1" stop-color="#600A67"/>
</linearGradient>
<clipPath id="clip0_31_21042">
<rect width="24" height="24" fill="white"/>
</clipPath>
</defs>
</svg>

<svg xmlns="http://www.w3.org/2000/svg" width="24" height="24" fill="none" viewBox="0 0 24 24"><g clip-path="url(#a)"><path fill="url(#b)" d="M0 0h24v24H0z"/><path fill="url(#c)" d="M5.572 14.306V8.914a1.29 1.29 0 0 1 .685-1.135l5.207-2.73a1.29 1.29 0 0 1 1.269.042l5.078 3.099a1.29 1.29 0 0 1 .618 1.101v5.028a1.29 1.29 0 0 1-.566 1.063l-5.044 3.424a1.29 1.29 0 0 1-1.428.008l-5.237-3.428a1.29 1.29 0 0 1-.582-1.08"/><path fill="#fff" d="M13.714 18.214c-.441.296-1.157.887-1.714.857-.527-.025-1.071-.583-1.5-.857.043-.064.214-.214.214-.643V12l-1.221.643c-.369.141-1.187.3-1.543-.215-.437-.642-.214-1.5.223-1.714.257-.128 1.101-.716 1.826-1.217.27-.189.514-.364.715-.497.219-.142.857-.429 1.286-.429s1.067.287 1.286.429l2.357 1.5c.364.214.964.857.437 1.714s-1.543.502-1.98.214L13.286 12v5.571c0 .429.321.549.428.643"/><path fill="url(#d)" d="M6 14.315v-2.786a.214.214 0 0 0-.428 0v2.786a1.29 1.29 0 0 0 .582 1.075l3.588 2.357a.216.216 0 0 0 .231-.364l-3.587-2.348a.86.86 0 0 1-.386-.72"/><path fill="#ED83B3" d="M18.244 14.126a.215.215 0 0 0 .215-.215V9.103a1.29 1.29 0 0 0-.617-1.097l-5.083-3.103a1.29 1.29 0 0 0-1.265-.043L7.83 6.784a.214.214 0 1 0 .197.377l3.665-1.92a.86.86 0 0 1 .844.026l5.083 3.103a.86.86 0 0 1 .411.728v4.813c0 .12.094.215.214.215"/><path fill="#FFD6E9" d="M13.307 5.477a.213.213 0 0 1 .296-.072l3.446 2.112a.214.214 0 0 1-.223.365L13.38 5.769a.214.214 0 0 1-.073-.292"/><path fill="#FC81B8" d="M10.234 9.099a.214.214 0 0 0 .283.03L10.706 9c.214-.141.857-.428 1.285-.428.429 0 1.063.287 1.286.428l2.353 1.5c.364.214.964.857.437 1.714l-.038.06c-.078.116-.06.288.064.356.086.043.184.026.24-.043l.098-.15c.343-.548.33-1.071.146-1.495a1.84 1.84 0 0 0-.724-.806l-2.344-1.5a3.6 3.6 0 0 0-1.518-.493 3.6 3.6 0 0 0-1.521.497l-.009.005-.188.132a.214.214 0 0 0-.043.322z"/><path fill="#FDD2E0" d="M13.14 8.67a.214.214 0 0 1 .3-.069l1.706 1.076a.215.215 0 0 1-.227.364l-1.715-1.075a.215.215 0 0 1-.064-.3z"/></g><defs><linearGradient id="b" x1="4.466" x2="29.207" y1="4.161" y2="32.58" gradientUnits="userSpaceOnUse"><stop stop-color="#1A1E21"/><stop offset="1" stop-color="#06060A"/></linearGradient><linearGradient id="c" x1="15.159" x2="8.786" y1="6" y2="17.447" gradientUnits="userSpaceOnUse"><stop stop-color="#F2445B"/><stop offset="1" stop-color="#A023B1"/></linearGradient><linearGradient id="d" x1="5.143" x2="10.063" y1="12.274" y2="17.212" gradientUnits="userSpaceOnUse"><stop stop-color="#7A1981"/><stop offset=".63" stop-color="#BD27C1"/><stop offset="1" stop-color="#600A67"/></linearGradient><clipPath id="a"><path fill="#fff" d="M0 0h24v24H0z"/></clipPath></defs></svg>
